Newaita-dark/devices/16/battery.svg

<svg height="16pt" viewBox="0 0 16 16" width="16pt" xmlns="http://www.w3.org/2000/svg" xmlns:xlink="http://www.w3.org/1999/xlink"><linearGradient id="a"><stop offset="0" stop-opacity=".313725"/><stop offset=".222222" stop-opacity=".27451"/><stop offset="1" stop-opacity="0"/></linearGradient><radialGradient id="b" cx="450.908936" cy="189.579361" gradientTransform="matrix(.00000009 -.0390662 -.0703192 -.00000005 23.419238 31.797665)" gradientUnits="userSpaceOnUse" r="21.166656" xlink:href="#a"/><radialGradient id="c" cx="450.908936" cy="189.579361" gradientTransform="matrix(-.00000009 .0390662 .0703192 .00000005 -7.542726 -3.76374)" gradientUnits="userSpaceOnUse" r="21.166656" xlink:href="#a"/><radialGradient id="d" cx="450.908936" cy="189.579361" gradientTransform="matrix(-.00000009 -.0390662 .0703192 -.00000005 -7.542726 31.797665)" gradientUnits="userSpaceOnUse" r="21.166656" xlink:href="#a"/><radialGradient id="e" cx="450.908936" cy="189.579361" gradientTransform="matrix(.00000009 .0390662 -.0703192 .00000005 23.419237 -3.763741)" gradientUnits="userSpaceOnUse" r="21.166656" xlink:href="#a"/><linearGradient id="f"><stop offset="0" stop-color="#bdbdbd"/><stop offset="1" stop-color="#e0e0e0"/></linearGradient><linearGradient id="g" gradientUnits="userSpaceOnUse" x1="7.938262" x2="7.938262" xlink:href="#f" y1="4.09414" y2="1.44805300003"/><linearGradient id="h" gradientUnits="userSpaceOnUse" x1="7.938262" x2="7.938262" xlink:href="#f" y1="14.0169675" y2="3.10185725"/><linearGradient id="i" gradientUnits="userSpaceOnUse" x1="7.938262" x2="7.938262" y1="14.0169665" y2="4.094139"><stop offset="0" stop-color="#26a69a"/><stop offset="1" stop-color="#4db6ac"/></linearGradient><linearGradient id="j" gradientTransform="matrix(.0208353 0 0 .031253 2.756337 6.719393)" gradientUnits="userSpaceOnUse" x1="254" x2="254" y1="233.5" y2="254.666672"><stop offset="0" stop-opacity=".27451"/><stop offset="1" stop-opacity="0"/></linearGradient><path d="m10.253906 14.015625h1.324219v-.660156h-1.324219zm0 0" fill="url(#b)"/><path d="m5.621094 14.015625h-1.320313v.664063h1.320313zm0 0" fill="url(#c)"/><path d="m5.621094 14.015625h-1.320313v-.660156h1.320313zm0 0" fill="url(#d)"/><path d="m10.253906 14.015625h1.324219v.664063h-1.324219zm0 0" fill="url(#e)"/><path d="m5.953125 1.449219h3.96875c.183594 0 .332031.148437.332031.328125v1.984375c0 .183593-.148437.332031-.332031.332031h-3.96875c-.183594 0-.332031-.148438-.332031-.332031v-1.984375c0-.179688.148437-.328125.332031-.328125zm0 0" fill="url(#g)"/><path d="m5.953125 1.449219c-.183594 0-.332031.144531-.332031.328125v.167968c0-.183593.148437-.332031.332031-.332031h3.96875c.183594 0 .332031.148438.332031.332031v-.167968c0-.183594-.148437-.328125-.332031-.328125zm0 0" fill="#fff" fill-opacity=".392157"/><path d="m5.953125 1.402344c-.207031 0-.378906.167968-.378906.375v1.984375c0 .210937.171875.378906.378906.378906h3.96875c.210937 0 .378906-.167969.378906-.378906v-1.984375c0-.207032-.167969-.375-.378906-.375zm0 .09375h3.96875c.160156 0 .285156.125.285156.28125v1.984375c0 .160156-.125.285156-.285156.285156h-3.96875c-.15625 0-.285156-.125-.285156-.285156v-1.984375c0-.15625.128906-.28125.285156-.28125zm0 0" fill="#212121"/><path d="m4.960938 3.101562h5.953124c.367188 0 .664063.296876.664063.660157v9.59375c0 .367187-.296875.660156-.664063.660156h-5.953124c-.363282 0-.660157-.292969-.660157-.660156v-9.59375c0-.363281.296875-.660157.660157-.660157zm0 0" fill="url(#h)"/><path d="m4.300781 4.09375v9.261719c0 .367187.292969.660156.660157.660156h5.953124c.367188 0 .664063-.292969.664063-.660156v-9.261719zm0 0" fill="url(#i)"/><path d="m5.621094 14.015625h4.632812v.664063h-4.632812zm0 0" fill="url(#j)"/><path d="m4.960938 3.101562c-.367188 0-.660157.296876-.660157.660157v.167969c0-.367188.292969-.664063.660157-.664063h5.953124c.367188 0 .664063.296875.664063.664063v-.167969c0-.363281-.296875-.660157-.664063-.660157zm0 0" fill="#fff" fill-opacity=".392157"/><path d="m4.960938 14.015625c-.367188 0-.660157-.292969-.660157-.660156v-.164063c0 .363282.292969.660156.660157.660156h5.953124c.367188 0 .664063-.296874.664063-.660156v.164063c0 .367187-.296875.660156-.664063.660156zm0 0" fill-opacity=".235294"/><path d="m4.960938 3.054688c-.390626 0-.707032.316406-.707032.707031v9.59375c0 .390625.316406.707031.707032.707031h5.953124c.394532 0 .710938-.316406.710938-.707031v-9.59375c0-.390625-.316406-.707031-.710938-.707031zm0 .09375h5.953124c.34375 0 .617188.273437.617188.613281v9.59375c0 .339843-.273438.613281-.617188.613281h-5.953124c-.339844 0-.613282-.273438-.613282-.613281v-9.59375c0-.339844.273438-.613281.613282-.613281zm0 0" fill="#212121"/></svg>

<?xml version="1.0" encoding="UTF-8"?>
<svg xmlns="http://www.w3.org/2000/svg" xmlns:xlink="http://www.w3.org/1999/xlink" width="16pt" height="16pt" viewBox="0 0 16 16" version="1.1">
<defs>
<radialGradient id="radial0" gradientUnits="userSpaceOnUse" cx="450.908936" cy="189.579361" fx="450.908936" fy="189.579361" r="21.166656" gradientTransform="matrix(0.0000000870852,-0.0390662,-0.0703192,-0.0000000507693,23.419238,31.797665)">
<stop offset="0" style="stop-color:rgb(0%,0%,0%);stop-opacity:0.313725;"/>
<stop offset="0.222222" style="stop-color:rgb(0%,0%,0%);stop-opacity:0.27451;"/>
<stop offset="1" style="stop-color:rgb(0%,0%,0%);stop-opacity:0;"/>
</radialGradient>
<radialGradient id="radial1" gradientUnits="userSpaceOnUse" cx="450.908936" cy="189.579361" fx="450.908936" fy="189.579361" r="21.166656" gradientTransform="matrix(-0.0000000870852,0.0390662,0.0703192,0.0000000507693,-7.542726,-3.76374)">
<stop offset="0" style="stop-color:rgb(0%,0%,0%);stop-opacity:0.313725;"/>
<stop offset="0.222222" style="stop-color:rgb(0%,0%,0%);stop-opacity:0.27451;"/>
<stop offset="1" style="stop-color:rgb(0%,0%,0%);stop-opacity:0;"/>
</radialGradient>
<radialGradient id="radial2" gradientUnits="userSpaceOnUse" cx="450.908936" cy="189.579361" fx="450.908936" fy="189.579361" r="21.166656" gradientTransform="matrix(-0.0000000870852,-0.0390662,0.0703192,-0.0000000507693,-7.542726,31.797665)">
<stop offset="0" style="stop-color:rgb(0%,0%,0%);stop-opacity:0.313725;"/>
<stop offset="0.222222" style="stop-color:rgb(0%,0%,0%);stop-opacity:0.27451;"/>
<stop offset="1" style="stop-color:rgb(0%,0%,0%);stop-opacity:0;"/>
</radialGradient>
<radialGradient id="radial3" gradientUnits="userSpaceOnUse" cx="450.908936" cy="189.579361" fx="450.908936" fy="189.579361" r="21.166656" gradientTransform="matrix(0.0000000870852,0.0390662,-0.0703192,0.0000000507693,23.419237,-3.763741)">
<stop offset="0" style="stop-color:rgb(0%,0%,0%);stop-opacity:0.313725;"/>
<stop offset="0.222222" style="stop-color:rgb(0%,0%,0%);stop-opacity:0.27451;"/>
<stop offset="1" style="stop-color:rgb(0%,0%,0%);stop-opacity:0;"/>
</radialGradient>
<linearGradient id="linear0" gradientUnits="userSpaceOnUse" x1="254" y1="-84" x2="254" y2="-168.666656" gradientTransform="matrix(0.031253,0,0,0.031253,0,6.719392)">
<stop offset="0" style="stop-color:rgb(74.117647%,74.117647%,74.117647%);stop-opacity:1;"/>
<stop offset="1" style="stop-color:rgb(87.843137%,87.843137%,87.843137%);stop-opacity:1;"/>
</linearGradient>
<linearGradient id="linear1" gradientUnits="userSpaceOnUse" x1="254" y1="233.5" x2="254" y2="-115.75" gradientTransform="matrix(0.031253,0,0,0.031253,0,6.719392)">
<stop offset="0" style="stop-color:rgb(74.117647%,74.117647%,74.117647%);stop-opacity:1;"/>
<stop offset="1" style="stop-color:rgb(87.843137%,87.843137%,87.843137%);stop-opacity:1;"/>
</linearGradient>
<linearGradient id="linear2" gradientUnits="userSpaceOnUse" x1="254" y1="233.5" x2="254" y2="-84" gradientTransform="matrix(0.031253,0,0,0.031253,0,6.719391)">
<stop offset="0" style="stop-color:rgb(14.901961%,65.098039%,60.392157%);stop-opacity:1;"/>
<stop offset="1" style="stop-color:rgb(30.196078%,71.372549%,67.45098%);stop-opacity:1;"/>
</linearGradient>
<linearGradient id="linear3" gradientUnits="userSpaceOnUse" x1="254" y1="233.5" x2="254" y2="254.666672" gradientTransform="matrix(0.0208353,0,0,0.031253,2.756337,6.719393)">
<stop offset="0" style="stop-color:rgb(0%,0%,0%);stop-opacity:0.27451;"/>
<stop offset="1" style="stop-color:rgb(0%,0%,0%);stop-opacity:0;"/>
</linearGradient>
</defs>
<g id="surface1">
<path style=" stroke:none;fill-rule:nonzero;fill:url(#radial0);" d="M 10.253906 14.015625 L 11.578125 14.015625 L 11.578125 13.355469 L 10.253906 13.355469 Z M 10.253906 14.015625 "/>
<path style=" stroke:none;fill-rule:nonzero;fill:url(#radial1);" d="M 5.621094 14.015625 L 4.300781 14.015625 L 4.300781 14.679688 L 5.621094 14.679688 Z M 5.621094 14.015625 "/>
<path style=" stroke:none;fill-rule:nonzero;fill:url(#radial2);" d="M 5.621094 14.015625 L 4.300781 14.015625 L 4.300781 13.355469 L 5.621094 13.355469 Z M 5.621094 14.015625 "/>
<path style=" stroke:none;fill-rule:nonzero;fill:url(#radial3);" d="M 10.253906 14.015625 L 11.578125 14.015625 L 11.578125 14.679688 L 10.253906 14.679688 Z M 10.253906 14.015625 "/>
<path style=" stroke:none;fill-rule:nonzero;fill:url(#linear0);" d="M 5.953125 1.449219 L 9.921875 1.449219 C 10.105469 1.449219 10.253906 1.597656 10.253906 1.777344 L 10.253906 3.761719 C 10.253906 3.945312 10.105469 4.09375 9.921875 4.09375 L 5.953125 4.09375 C 5.769531 4.09375 5.621094 3.945312 5.621094 3.761719 L 5.621094 1.777344 C 5.621094 1.597656 5.769531 1.449219 5.953125 1.449219 Z M 5.953125 1.449219 "/>
<path style=" stroke:none;fill-rule:nonzero;fill:rgb(100%,100%,100%);fill-opacity:0.392157;" d="M 5.953125 1.449219 C 5.769531 1.449219 5.621094 1.59375 5.621094 1.777344 L 5.621094 1.945312 C 5.621094 1.761719 5.769531 1.613281 5.953125 1.613281 L 9.921875 1.613281 C 10.105469 1.613281 10.253906 1.761719 10.253906 1.945312 L 10.253906 1.777344 C 10.253906 1.59375 10.105469 1.449219 9.921875 1.449219 Z M 5.953125 1.449219 "/>
<path style=" stroke:none;fill-rule:nonzero;fill:rgb(12.941177%,12.941177%,12.941177%);fill-opacity:1;" d="M 5.953125 1.402344 C 5.746094 1.402344 5.574219 1.570312 5.574219 1.777344 L 5.574219 3.761719 C 5.574219 3.972656 5.746094 4.140625 5.953125 4.140625 L 9.921875 4.140625 C 10.132812 4.140625 10.300781 3.972656 10.300781 3.761719 L 10.300781 1.777344 C 10.300781 1.570312 10.132812 1.402344 9.921875 1.402344 Z M 5.953125 1.496094 L 9.921875 1.496094 C 10.082031 1.496094 10.207031 1.621094 10.207031 1.777344 L 10.207031 3.761719 C 10.207031 3.921875 10.082031 4.046875 9.921875 4.046875 L 5.953125 4.046875 C 5.796875 4.046875 5.667969 3.921875 5.667969 3.761719 L 5.667969 1.777344 C 5.667969 1.621094 5.796875 1.496094 5.953125 1.496094 Z M 5.953125 1.496094 "/>
<path style=" stroke:none;fill-rule:nonzero;fill:url(#linear1);" d="M 4.960938 3.101562 L 10.914062 3.101562 C 11.28125 3.101562 11.578125 3.398438 11.578125 3.761719 L 11.578125 13.355469 C 11.578125 13.722656 11.28125 14.015625 10.914062 14.015625 L 4.960938 14.015625 C 4.597656 14.015625 4.300781 13.722656 4.300781 13.355469 L 4.300781 3.761719 C 4.300781 3.398438 4.597656 3.101562 4.960938 3.101562 Z M 4.960938 3.101562 "/>
<path style=" stroke:none;fill-rule:nonzero;fill:url(#linear2);" d="M 4.300781 4.09375 L 4.300781 13.355469 C 4.300781 13.722656 4.59375 14.015625 4.960938 14.015625 L 10.914062 14.015625 C 11.28125 14.015625 11.578125 13.722656 11.578125 13.355469 L 11.578125 4.09375 Z M 4.300781 4.09375 "/>
<path style=" stroke:none;fill-rule:nonzero;fill:url(#linear3);" d="M 5.621094 14.015625 L 10.253906 14.015625 L 10.253906 14.679688 L 5.621094 14.679688 Z M 5.621094 14.015625 "/>
<path style=" stroke:none;fill-rule:nonzero;fill:rgb(100%,100%,100%);fill-opacity:0.392157;" d="M 4.960938 3.101562 C 4.59375 3.101562 4.300781 3.398438 4.300781 3.761719 L 4.300781 3.929688 C 4.300781 3.5625 4.59375 3.265625 4.960938 3.265625 L 10.914062 3.265625 C 11.28125 3.265625 11.578125 3.5625 11.578125 3.929688 L 11.578125 3.761719 C 11.578125 3.398438 11.28125 3.101562 10.914062 3.101562 Z M 4.960938 3.101562 "/>
<path style=" stroke:none;fill-rule:nonzero;fill:rgb(0%,0%,0%);fill-opacity:0.235294;" d="M 4.960938 14.015625 C 4.59375 14.015625 4.300781 13.722656 4.300781 13.355469 L 4.300781 13.191406 C 4.300781 13.554688 4.59375 13.851562 4.960938 13.851562 L 10.914062 13.851562 C 11.28125 13.851562 11.578125 13.554688 11.578125 13.191406 L 11.578125 13.355469 C 11.578125 13.722656 11.28125 14.015625 10.914062 14.015625 Z M 4.960938 14.015625 "/>
<path style=" stroke:none;fill-rule:nonzero;fill:rgb(12.941177%,12.941177%,12.941177%);fill-opacity:1;" d="M 4.960938 3.054688 C 4.570312 3.054688 4.253906 3.371094 4.253906 3.761719 L 4.253906 13.355469 C 4.253906 13.746094 4.570312 14.0625 4.960938 14.0625 L 10.914062 14.0625 C 11.308594 14.0625 11.625 13.746094 11.625 13.355469 L 11.625 3.761719 C 11.625 3.371094 11.308594 3.054688 10.914062 3.054688 Z M 4.960938 3.148438 L 10.914062 3.148438 C 11.257812 3.148438 11.53125 3.421875 11.53125 3.761719 L 11.53125 13.355469 C 11.53125 13.695312 11.257812 13.96875 10.914062 13.96875 L 4.960938 13.96875 C 4.621094 13.96875 4.347656 13.695312 4.347656 13.355469 L 4.347656 3.761719 C 4.347656 3.421875 4.621094 3.148438 4.960938 3.148438 Z M 4.960938 3.148438 "/>
</g>
</svg>
